X: 10301
T: MEDI VALSE
C: Arranged by W. B. Laybourn
R: waltz
B: K\"ohler's Violin Repository, v.1, 1885 p.31 #1
F: http://www.archive.org/details/klersviolinrepos01edin
Z: 2011 John Chambers <jc:trillian.mit.edu>
M: 3/4
L: 1/8
K: Bb
|:\
vf3 (=ef)g | f2 [D2B,2] [D2B,2] | f3 (=ef)g | f2 [E2C2] [E2C2] |\
f2 u[D2B,2] u[D2B,2] | f2 u[D2B,2] u[D2B,2] | E>(Gc)>(eA)>c | [B2D2] z2 :|
|: uF2 |\
[BD]B/B/ BBBd | [cF]c/c/ ccce | [AF]A/A/ AAAc | [BD]B/B/ BFGA |\
[BD]B/B/ BBBd | [cF]c/c/ ccce | [AF]A/A/ AAAc | [B2D2] z2 :|
|: (ude) |\
f4 (de) | f4 (de) | f>(d'c')>(ba)>(g | f4) (de) | f4 de | f4 b2 | a>(bc')>(d'e')>(a | b2) z2 :|
|: uf2 | [bd]b/b/ bbbd' | [c'e]c'/c'/ c'c'c'e' | [ae]a/a/ aaac' |\
[bd]b/b/ bfga | [bd]b/b/ bbbd' | [c'e]c'/c'/ c'c'c'e' | [ae]a/a/ aaac' | [b2d2] z2 :|

%%sep 2 1 500

